svg/pipe_disconnected.svg

<svg xmlns="http://www.w3.org/2000/svg" width="24" height="24" viewBox="0 0 24 24"><path d="M16 9v2H8V9h2V8H4v2H2V2h2v2h8a2 2 0 0 1 2 2v3h2m-6 6v3a2 2 0 0 0 2 2h8v2h2v-8h-2v2h-6v-1h2v-2H8v2h2z"/></svg>

<?xml version="1.0" encoding="UTF-8"?><!DOCTYPE svg PUBLIC "-//W3C//DTD SVG 1.1//EN" "http://www.w3.org/Graphics/SVG/1.1/DTD/svg11.dtd"><svg xmlns="http://www.w3.org/2000/svg" xmlns:xlink="http://www.w3.org/1999/xlink" version="1.1" width="24" height="24" viewBox="0 0 24 24"><path d="M16,9V11H8V9H10V8H4V10H2V2H4V4H12A2,2 0 0,1 14,6V9H16M10,15V18A2,2 0 0,0 12,20H20V22H22V14H20V16H14V15H16V13H8V15H10Z" /></svg>
